assets/icons/microphone/high-filled.svg

<?xml version="1.0" encoding="UTF-8" standalone="no"?>
<svg viewBox="0 0 24 24" height="24" width="24" version="1.1" id="svg10" sodipodi:docname="high-filled.svg" inkscape:version="1.1 (ce6663b3b7, 2021-05-25)"
   xmlns:inkscape="http://www.inkscape.org/namespaces/inkscape"
   xmlns:sodipodi="http://sodipodi.sourceforge.net/DTD/sodipodi-0.dtd"
   xmlns="http://www.w3.org/2000/svg"
   xmlns:svg="http://www.w3.org/2000/svg">
   <defs id="defs14" />
   <sodipodi:namedview id="namedview12" pagecolor="#ffffff" bordercolor="#666666" borderopacity="1.0" inkscape:pageshadow="2" inkscape:pageopacity="0.0" inkscape:pagecheckerboard="0" showgrid="true" width="24px" inkscape:zoom="39.59798" inkscape:cx="7.3614866" inkscape:cy="12.058696" inkscape:window-width="1920" inkscape:window-height="1016" inkscape:window-x="0" inkscape:window-y="27" inkscape:window-maximized="1" inkscape:current-layer="svg10">
      <inkscape:grid type="xygrid" id="grid831" />
   </sodipodi:namedview>
   <path id="rect864" style="fill:#808080;fill-opacity:1;fill-rule:evenodd;stroke-width:0.5;stroke-linecap:round;stroke-linejoin:round" d="m 7.5,2 c -1.939,0 -3.5,1.561 -3.5,3.5 v 7 c 0,1.939 1.561,3.5 3.5,3.5 1.939,0 3.500001,-1.561 3.500001,-3.5 v -7 c 0,-1.939 -1.561001,-3.5 -3.500001,-3.5 z m -5.5,9 v 1.5 c 0.00539,2.839827 2.1719266,5.208636 5,5.466797 v 3.044922 c -1.744098,0.07151 -3,0.488281 -3,0.488281 v 0.5 h 7 v -0.5 c 0,0 -1.255902,-0.416771 -3,-0.488281 v -3.044922 c 2.828073,-0.258161 4.994615,-2.62697 5,-5.466797 v -1.5 h -1 v 1.5 c -0.0037,2.28901 -1.72516,4.210512 -4,4.464844 v -0.464844 h -1 v 0.464844 c -2.27484,-0.254332 -3.9962905,-2.175834 -4,-4.464844 v -1.5 z" sodipodi:nodetypes="sssssssccccccccccccccccccccc" />
   <path id="path966" style="fill:#808080;fill-rule:evenodd;stroke-width:0.5;stroke-linecap:round;stroke-linejoin:round" d="m 18.646483,5.6582031 c -1.686238,1.6806856 -2.637847,3.9610345 -2.646484,6.3417969 0.009,2.446807 1.013916,4.784469 2.783203,6.474609 l 0.708985,-0.707031 c -1.582509,-1.502212 -2.482761,-3.585632 -2.492188,-5.767578 3.19e-4,-2.1187385 0.84111,-4.1508245 2.337891,-5.6503906 z" sodipodi:nodetypes="ccccccc" />
   <path id="path2102" style="fill:#808080;fill-opacity:1;fill-rule:evenodd;stroke-width:0.5;stroke-linecap:round;stroke-linejoin:round" d="m 21.011718,8.0117188 c -1.260153,0.9393447 -2.00527,2.4165592 -2.011718,3.9882812 0.0064,1.571722 0.751565,3.048936 2.011718,3.988281 l 0.708985,-0.708984 c -1.075512,-0.745771 -1.718159,-1.970521 -1.720703,-3.279297 0.0025,-1.308776 0.645191,-2.5335258 1.720703,-3.2792969 z" sodipodi:nodetypes="ccccccc" />
</svg>

<svg height="24" width="24" xmlns="http://www.w3.org/2000/svg"><path style="fill:gray;fill-opacity:1;stroke-width:.5;stroke-linecap:round;stroke-linejoin:round" d="M7.5 2A3.492 3.492 0 0 0 4 5.5v7C4 14.439 5.561 16 7.5 16s3.5-1.561 3.5-3.5v-7C11 3.561 9.439 2 7.5 2zM2 11v1.5a5.5 5.5 0 0 0 5 5.467v3.045c-1.744.071-3 .488-3 .488v.5h7v-.5s-1.256-.417-3-.488v-3.045a5.5 5.5 0 0 0 5-5.467V11h-1v1.5a4.5 4.5 0 0 1-4 4.465V16.5H7v.465A4.5 4.5 0 0 1 3 12.5V11z"/><path style="fill:gray;stroke-width:.5;stroke-linecap:round;stroke-linejoin:round" d="M18.646 5.658A9 9 0 0 0 16 12a9 9 0 0 0 2.783 6.475l.71-.707A8 8 0 0 1 17 12a8 8 0 0 1 2.338-5.65z"/><path style="fill:gray;fill-opacity:1;stroke-width:.5;stroke-linecap:round;stroke-linejoin:round" d="M21.012 8.012A5 5 0 0 0 19 12a5 5 0 0 0 2.012 3.988l.709-.709A4 4 0 0 1 20 12a4 4 0 0 1 1.72-3.28z"/></svg>
